X: 47
T:Brimfield Stick Dance
M:2/2
L:1/8
S:Morris
K:G
D2 G2  D2 G2 | F2 E2  F2 E2 | D2 G2  D2 G2| F2 G2 A4 | D2 G2  D2 G2 |F2
E2  F2 E2| D3 D E2F2 | G2G2G4:|
B3 A G2 B2|c4 A4|  B3 A G2 B2|A2 F2 D4| B3 A G2 B2||c4 A4|c2B2G2A2|F2G2G
2G2:|
